X:1
T:6 Gedichte, Op.8
T:Der Spanische Zitherknabe
T:der Frau Emilie von Henning geb. Krutisch hochachtungsvoll zugeeignet
T:1. Der spanische Zitherknabe
T:Johanna Kinkel
T:6 Gedichte, Op.8 
T:Emanuel Geibel
T:Creative Commons copyright waiver (CC0 1.0 Universal)
T:Creative Commons copyright waiver (CC0 1.0 Universal)
T:Creative Commons copyright waiver (CC0 1.0 Universal)
T:Creative Commons copyright waiver (CC0 1.0 Universal)
T:Creative Commons copyright waiver (CC0 1.0 Universal)
C:Johanna Kinkel (originally published under the name Johanna Mathieux)
Z:Emanuel Geibel
Z:Creative Commons copyright waiver (CC0 1.0 Universal)
%%score ( 1 2 ) { 3 | 4 }
L:1/8
Q:1/4=116
M:3/4
K:G
V:1 treble nm="Singstimme\nVoice"
V:2 treble 
V:3 treble nm="Pianoforte"
V:4 bass 
V:1
"^Allegretto" z6 | z6 | z6 | z6 |:SS G3/2 F/ E ^D/E/ F D | (E3/2 F/) G2 z2 | %6
w: ||||Fern im Süd das * schö- ne|Spa- ni- en|
w: ||||Die- ser Ne- bel * drückt mich|nie- * der|
w: ||||Ach, ich dach- te * bei dem|Tan- * ze|
 B3/2 A/ G A/B/ c/d/ c | B4 z2 | B/c/ B B/c/ B A/B/ A | (G3/2 A/) B2 z2 | A/c/ F G/B/ E F/A/ ^D | %11
w: Spa- nien ist mein * Hei- * mat-|land;|wo * die schat- * ti- gen * Ka-|sta- ni- en|rau- * schen an * des E- * bro|
w: der die Son- ne * mir * ent-|fernt,|und * die al- * ten lust'- * gen|Lie- * der|hab' * ich al- * le fast * verl-|
w: an des Va- ter- * lan- * des|Lust,|wo * im duft'- * gen Mon- * den-|glan- * ze|frei- * er at- * met je- * de|
 E4 z2 | z6 | z6 |!p! E3/2 =F/ G c B d | B>c G2 z2 |!mf! E3/2 =F/ G c c/B/ A/B/ | c4!f! c c | %18
w: Strand.|||Wo die Man- deln röt- lich|blü- * hen,|wo die heis- se Trau- * be *|winkt, und die|
w: lernt.|||Im- mer in die Me- lo-|di- * en|schleicht der ei- ne Klang * sich *|ein: in die|
w: Brust.|||Wo sich zu der Zi- ther|Tö- * nen|je- der Fuss be- flü- * gelt *|schwingt und der|
 _e3 _A A _B | c>_d c2 c c | =e3 d/c/ d B | c4 z2 | z6 | z6 | z6 | z6 |!p! c3/2 B/ F G A G/F/ | %27
w: Ro- sen schö- ner|glü- * hen, und das|Mond- licht * gold- ner|blinkt.|||||  Und nun wand'r ich mit der *|
w: Hei- mat möcht' ich|zie- * hen, in das|Land voll * Son- nen-|schein.|||||Als beim fro- hen Ern- te- *|
w: Kna- be mit der|Schö- * nen * *||schlingt.|||||  Nein, des Her- zens seh- nend *|
 G>F E2 z2 |[Q:1/4=110]"^poco rall." c3/2 c/ c B B/A/ G |[Q:1/4=100] F4 z2 | %30
w: Lau- * te|trau- rig hier von Haus * zu|Haus;|
w: fes- * te|man den gros- sen Rei- * gen|hielt,|
w: Schla- * gen,|län- ger halt' ich's nicht * zu-|rück!|
[Q:1/4=90] F3/2 ^G/ F B ^A ^c |[Q:1/4=80] ^A>B F2 z2 | %32
w: doch kein hel- les Au- ge|schau- * te|
w: hab' ich jüngst das Al- ler-|be- * ste|
w: will ja je- der Lust ent-|sa- * gen,|
[Q:1/4=75]"^molto ritard." ^D F/B/[Q:1/4=70]!<(! ^d e/d/[Q:1/4=65] d/^c/ B/!<)!c/ | %33
w: freund- lich * noch nach * mir * her- *|
w: mei- ner * Lie- der * auf- * ge- *|
w: lasst mir * nur der * Hei- * mat *|
[Q:1/4=60] (B2!>(! !fermata!A4)!>)! | %34
w: aus; *|
w: spielt; *|
w: Glück. *|
[Q:1/4=116]"^Allegretto""^a tempo." ^G3/2"^NB. Die kleinen Noten sind für die letzte Strophe.\n       \nThe small notes are for the last verse.\n" A/ ^c B c ^d | %35
w: |
w: Doch wie sich die Paa- re|
w: Fort zum Sü- den, fort nach|
 (e2 B) z z2 | B3/2 ^A/ ^G ^^F/G/ A ^D | B4 z2 | B ^c/d/ c>A F2 | A B/=c/ B>=G E2 | %40
w: |mür- risch heis- set * man mich|gehn;|ach, den * ar- * men|brau- nen * Kna- * ben|
w: |in der A- bend- * son- ne|Gold,|sind auf * mei- * ne|dunk- len * Wan- * gen|
w: |in das Land voll * Son- nen-|schein!|Dort im * Schat- * ten|der Kas- * ta- * nien|
[Q:1/4=110]"^ritard. un poco."{A} c3/2 F/{G} B3/2[Q:1/4=105] E/{F} A3/2 ^D/ | E4 z2 | z6 | z6 | %44
w: mag kein Ein- zi- ger ver-|stehn.|||
w: heis- se Trä- nen hin- ge-|rollt.|||
w: muss ich einst be- gra- ben|sein.|||
 z6 |SS z6!D.S.! :| %46
w: ||
w: ||
w: ||
V:2
 x6 | x6 | x6 | x6 |: x6 | x6 | x6 | x6 | x6 | x6 | x6 | x6 | x6 | x6 | x6 | x6 | x6 | x6 | x6 | %19
w: |||||||||||||||||||
w: |||||||||||||||||||
w: |||||||||||||||||||
 x2 x2 z2 | e3/2 d/ c B/c/ d B | x6 | x6 | x6 | x6 | x6 | x6 | x6 | x6 | x6 | x6 | x6 | x6 | x6 | %34
w: |||||||||||||||
w: |||||||||||||||
w: |glü- hend- den Fan- * dan- go||||||||||||||
 ^G3/2 F/ E ^D/E/ F D | E>F ^G x x2 | x6 | x6 | x6 | x6 | x6 | x6 | x6 | x6 | x6 | x6 :| %46
w: Spär- lich reicht man * mir die|Ga- * ben,|||||||||||
w: |schwan- * gen|||||||||||
w: |Spa- * nien,|||||||||||
V:3
!f!"_Tempo di Fandango" [GBeg]>f e^d/e/ .f.d | (e>f) g2 z2 | %2
!sfz!{ab} .c'.f!sfz!{ga} .b.e!sfz!{fg} .a.^d | [GBe] [EGB]/[EGB]/!f! !>![EGB][B,EG][G,B,E] z |: %4
!pp! z{EF} [B,G] z{EF} [B,G] z{^DE} [A,F] | z{EF} [B,G] z{EF} [B,G] z{EF} [B,G] | %6
 z{GA} [DB] z{GA} [DB] z{FG} [DA] | z{GA} [DB] z{GA} [DB] z{GA} [DB] | %8
 z{B,^D} A z{B,D} A z{B,F} A | z{B,E} G z{B,E} G z{B,E} G | z{FG} A z{EF} G z{^DE} F | %11
 z{EF} [B,G] z{EF} [B,G] z{EF} [B,G] |{AB} !>!.c.F{GA} !>!.B.E{FG} !>!.A.^D | %13
!pp! [G,B,E][G,B,E]/[G,B,E]/ [G,B,E][G,B,E][G,B,E][G,B,E] | %14
 [G,CE][G,CE]/[G,CE]/ [G,CE][G,CE] [G,D=F][G,DF] |!mf! e/=f/^f/g/ a/g/=f/e/ e/d/c/B/ | %16
 c>e G2 [D=F][DF] |!<(! [G,CE][G,CE]/[G,CE]/ [G,CE]!<)![G,CE]!f! [G,C_E][G,CE] | %18
 [C_E_Ac][CEAc]/[CEAc]/ [CEAc][CEAc] [EAc][EG_B] | [C_E_A][CEA]/[CEA]/ [CEA][CEA] [CE^Fc][CEFc] | %20
!ff! [C=EGc][CEGc]/[CEGc]/ [CEGc][CEGc] [D=FGB][DFGB] | %21
!sfz! [CEGc][CEGc]/[CEGc]/ [CEGc][CEGc][CEGc][CEGc] | e/=f/^f/g/ a/g/=f/e/ e/d/c/B/ | %23
 [Ec]"_dim."[EG]/[EG]/ [EG][EG] [DE^G][DEG] | !>![Ac]/d/^d/e/ =f/e/=d/c/ c/B/A/^G/ | %25
 [CEA][K:bass] [A,CE]/[A,CE]/ !>![A,CE][E,A,C][C,E,A,] z |[K:treble]!p! z{CF} A z{CF} A z{^DF} A | %27
 z{B,E} G z{B,E} G z{B,E} G | !>![^DF]3 [EG] [B,FA][B,EG] | [B,^DF]2 ([FA][EG]) [DF]2 | %30
[I:staff +1] [F,B,^D][F,B,D]/[F,B,D]/ [F,B,D][F,B,D] [F,^CE][F,CE] | %31
[I:staff -1] ^d/e/^e/f/ ^g/f/=e/d/ d/^c/B/^A/ | [^DB] [DF]/[DF]/!<(! [DF][DF] [^A,^CE][A,CE]!<)! | %33
!mf! [B,^D][B,D] [=A,E][A,E] !>!!fermata![A,F]!>!!fermata![B,F] | %34
 [E^G]/B/B,/B/ [EG]/B/B,/B/ [FA]/B/B,/B/ | [E^G]/B/B,/B/ [EG]/B/B,/B/ [EG]/B/B,/B/ | %36
 [^D^G]/B/B,/B/ [DG]/B/B,/B/ [D^^F]/^A/^C/A/ | [^D^G]/B/B,/B/ [DG]/B/B,/B/ [DG]/B/B,/B/ | %38
 z{D^G} B z{^CF} A z{CF} A | z{=CF} A z{B,E} G z{B,E} G | z{CF} A z{B,E} G z{A,^D} F | %41
 z/ G,/B,/^D/ E/G/B/^d/ e/B/e/g/ |!f! [GBeg]>f e^d/e/ .f.d | (e>f) g2 z2 | %44
!sfz!{ab} .c'.f!sfz!{ga} .b.e!sfz!{fg} .a.^d | [GBe]!f! [EGB]/[EGB]/ .[EGB].[B,EG].[G,B,E] z :| %46
V:4
!ped! [E,,E,][K:treble] [B,EG]/[B,EG]/ [B,EG][B,EG] [B,^DA][B,FA]!ped-up! | %1
[K:bass]!ped! [E,E][K:treble] [B,EG]/[B,EG]/ [B,EG][B,EG][B,EG][B,EG]!ped-up! | %2
!p! !>!A,[Ac] !>!B,[GB] !>!B,[FA] |[K:bass] [E,B,E] z !>![E,,E,]4 |: %4
 [E,,E,][E,G,] [E,,E,][E,G,] [B,,,B,,][B,,B,] | [E,,E,][E,G,] [E,,E,][E,G,] [E,,E,][E,G,] | %6
 [D,,D,][D,G,B,] [D,,D,][D,G,B,] [D,,D,][D,F,C] | [D,,D,][D,G,B,] [D,,D,][D,G,B,] [D,,D,][D,G,B,] | %8
 [F,,F,] z [F,,F,] z [^D,,^D,] z | [E,,E,] z [E,,E,] z [E,,E,] z | %10
 !>!.A,,[C,F,] !>!.B,,[E,G,] !>!.B,,[F,A,] | [E,,E,][E,G,] [E,,E,][E,G,] [E,,E,][E,G,] | %12
 !>!.A,,[C,F,] !>!.B,,[E,G,] !>!.B,,[F,A,] | %13
 [E,,B,,E,][E,,B,,E,]/[E,,B,,E,]/ [E,,B,,E,][E,,B,,E,][E,,B,,E,][E,,B,,E,] | %14
 [C,,C,] z [C,,C,] z [G,,,G,,] z | [C,,G,,C,] [G,CE]/[G,CE]/ [G,CE][G,CE] [G,B,=F][G,DF] | %16
 [C,G,C] [G,CE]/[G,CE]/ [G,CE][G,CE] [G,,G,]2 | %17
 [C,,C,][C,,C,]/[C,,C,]/ [C,,C,][C,,C,][C,,C,][C,,C,] | %18
!ped! [_A,,,_A,,][A,,,A,,]/[A,,,A,,]/ [A,,,A,,][A,,,A,,] [C,,C,][E,,E,]!ped-up! | %19
!ped! [_A,,_A,][A,,A,]/[A,,A,]/ [A,,A,][A,,A,] [A,,A,][A,,A,]!ped-up! | %20
!ped! [G,,C,G,][G,,C,G,]/[G,,C,G,]/ [G,,C,G,][G,,C,G,]!ped-up! [G,,D,G,][G,,D,G,] | %21
!ped! [C,,G,,C,] [C,G,]/[C,G,]/ [C,G,][C,G,][C,G,][C,G,] | %22
 [C,G,C] [G,CE]/[G,CE]/ [G,CE][G,CE]!ped-up! [G,B,=F][G,DF] | %23
 [C,C][C,C]/[C,C]/ [C,C][C,C] [B,,B,][B,,B,] | %24
 !>![A,,E,A,] [E,A,C]/[E,A,C]/ [E,A,C][E,A,C] [E,^G,D][E,B,D] | [A,,A,] z !>![A,,,A,,]4 | %26
 [^D,,^D,] z [D,,D,] z [B,,,B,,] z | [E,,E,] z [E,,E,] z [E,,E,] z | %28
"^poco rall." !>![A,,A,]3 [G,,G,] [^D,,^D,][E,,E,] | [B,,,B,,]6 | %30
 [F,,,F,,] z [F,,,F,,] z [F,,,F,,] z | [B,,,B,,] [F,B,^D]/[F,B,D]/ [F,B,D][F,B,D] [F,^A,E][F,^CE] | %32
"^molto ritard." [B,,F,B,] [F,B,]/[F,B,]/ [F,B,][F,B,] [F,,F,]2 | %33
 [B,,,B,,]2 [^C,,^C,]2 !>!!fermata![D,,D,]!>!!fermata![^D,,^D,] |"^a tempo." [E,,E,]4 [B,,,B,,]2 | %35
 [E,,E,]4 [E,,E,]2 | [^D,,^D,]4 [D,,D,]2 | [^G,,^D,]6 | [^E,,^E,] z [F,,F,] z [F,,F,] z | %39
 [^D,,^D,] z [E,,E,] z [E,,E,] z | [A,,,A,,] z [B,,,B,,] z [B,,,B,,] z | [E,,E,] z [E,G,B,]2 z2 | %42
!ped! [E,,E,][K:treble] [B,EG]/[B,EG]/ [B,EG][B,EG] [B,^DA][B,FA]!ped-up! | %43
[K:bass]!ped! [E,E][K:treble] [B,EG]/[B,EG]/ [B,EG][B,EG][B,EG][B,EG]!ped-up! | %44
!p! !>!A,[Ac] !>!B,[GB] !>!B,[FA] |[K:bass] [E,B,E] z !>![E,,E,]4 :| %46

